X:1
T:Title
%%score { 1 | 2 }
L:1/8
Q:1/4=100
M:4/4
K:D
V:1 treble nm="Grand Piano"
V:2 bass 
V:1
 F2 F>F F<F F[EG] | [FA]2 [GB]>[FA] [DF]4 | [CE][CE][CE][DF] [EG][EG][EG][CGB] | %3
w: J.~H.~Tenney * * * * * *|||
 [DGB]2 [DFA]>[A,DF] [A,CE]4 | F2 F>F FFF[EG] | [FA]2 d>c B4 | [FA][FA][FA][FA] GGFF | E2 A>A F4 | %8
w: |||||
 [FA]2 [FA]>[GB] [FA]2 [DF]2 | [Fd]2 [Gd]>[DGB] [DFA]4 | [DFA][EG][EG][EG] [EG][DF][DF][DF] | %11
w: |||
 [CE]2 [CE]>[DF] [EG]4 | F2 F>F FFF[EG] | [FA]2 d>c B4 | [FA][FA][FA][FA] GGFF | E2 A>A F4 |] %16
w: |||||
V:2
 [D,A,D]2 [D,A,D]>[D,A,D] [D,A,D]<[D,A,D] [D,A,D][D,A,] | [D,D]2 [D,D]>[D,D] [D,A,]4 | %2
 [A,,A,][A,,A,][A,,A,][A,,A,] [A,,A,][A,,A,][A,,A,]A,, | D,2 D,>D, A,,4 | %4
 [D,A,D]2 [D,A,D]>[D,A,D] [D,A,D][D,A,D][D,A,D][D,A,] | [D,A,]2 [F,A,D]>[F,A,D] [G,D]4 | %6
 [D,A,][D,A,][D,A,][D,A,] [E,A,E][E,A,E][F,A,D][F,A,D] | [G,B,D]2 [A,C]>[A,C] [D,A,D]4 | %8
 [D,D]2 [D,D]>[D,D] [D,D]2 [D,A,]2 | [D,A,]2 [G,B,]>G, D,4 | %10
 A,,[A,,A,][A,,A,][A,,A,] [A,,A,][A,,A,][A,,A,][A,,A,] | [A,,A,]2 [A,,A,]>[A,,A,] [A,,A,]4 | %12
 [D,A,D]2 [D,A,D]>[D,A,D] [D,A,D][D,A,D][D,A,D][D,A,] | [D,A,]2 [F,A,D]>[F,A,D] [G,D]4 | %14
 [D,A,][D,A,][D,A,][D,A,] [E,A,E][E,A,E][F,A,D][F,A,D] | [G,B,D]2 [A,C]>[A,C] [D,A,D]4 |] %16

